X: 10763
M: 2/4
L: 1/16
K: D
d2a2a2g2 | Tf4 d2f2 | (g2e2)(f2d2) | (dc)BA A2Bc |\
d2a2a2g2 | Tf4 d2A2 | B2ge d2c2 | "^Fin."d4 d2 H:|\
f2 |\
e2f2g2f2 | e2a2f2d2 | (edcd) (efgf) | (edef) e2f2 |
e3fg2f2 | e4 fedc | B2f2e2^G2 | A4 z4 !segno!|:\
"^Minore."f2 |\


